src/images/actioncable.svg

<?xml version="1.0" encoding="UTF-8" standalone="no"?>
<svg width="293px" height="278px" viewBox="0 0 293 278" version="1.1" xmlns="http://www.w3.org/2000/svg" xmlns:xlink="http://www.w3.org/1999/xlink">
    <!-- Generator: Sketch 41.1 (35376) - http://www.bohemiancoding.com/sketch -->
    <title>Illustration</title>
    <desc>Created with Sketch.</desc>
    <defs>
        <polygon id="path-1" points="0 20 40 0 80 20 80 70 40 90 0 70"></polygon>
        <mask id="mask-2" maskContentUnits="userSpaceOnUse" maskUnits="objectBoundingBox" x="0" y="0" width="80" height="90" fill="white">
            <use xlink:href="#path-1"></use>
        </mask>
        <polygon id="path-3" points="0 20 40 0 80 20 80 70 40 90 0 70"></polygon>
        <mask id="mask-4" maskContentUnits="userSpaceOnUse" maskUnits="objectBoundingBox" x="0" y="0" width="80" height="90" fill="white">
            <use xlink:href="#path-3"></use>
        </mask>
        <polygon id="path-5" points="0 20 40 0 80 20 80 70 40 90 0 70"></polygon>
        <mask id="mask-6" maskContentUnits="userSpaceOnUse" maskUnits="objectBoundingBox" x="0" y="0" width="80" height="90" fill="white">
            <use xlink:href="#path-5"></use>
        </mask>
    </defs>
    <g id="Landing" stroke="none" stroke-width="1" fill="none" fill-rule="evenodd">
        <g transform="translate(-214.000000, -1033.000000)" id="Slide-2">
            <g transform="translate(214.000000, 700.000000)">
                <g id="Illustration" transform="translate(0.000000, 333.000000)">
                    <text id="Rails-Application-+" font-family="Stem-Regular, Stem" font-size="13" font-weight="normal" line-spacing="16" fill="#9E9E9E">
                        <tspan x="96.5" y="261">Rails Application</tspan>
                        <tspan x="103.858" y="277">+ ActionCable</tspan>
                    </text>
                    <g id="Rails" transform="translate(106.000000, 150.000000)">
                        <use id="Rectangle-9" stroke="#363636" mask="url(#mask-2)" stroke-width="4" xlink:href="#path-1"></use>
                        <path d="M40,88.5 L40,40.5" id="Line" stroke="#363636" stroke-width="2" stroke-linecap="square"></path>
                        <polyline id="Line" stroke="#363636" stroke-width="2" points="1 20.5 40 40 79 20.5"></polyline>
                        <path d="M49.3628731,72.0903377 L49.3628731,78.4295315 L50.6895796,77.7693176 L50.6895796,76.1182692 L51.8970039,76.9888759 L53.932665,75.9758622 L52.3179738,74.8115979 C52.3179738,74.8115979 53.4795721,74.2105516 53.5674052,72.1196632 C53.5674052,70.2413937 52.404459,70.576742 51.061354,71.2451163 L49.3628731,72.0903377 Z M50.7527027,73.1182002 L51.8970039,72.5487573 L51.8970039,73.6780186 L50.7527027,74.2474615 L50.7527027,73.1182002 Z M56.4951001,68.5668345 C55.7686238,68.9231522 54.7611266,69.5066449 54.7611266,71.1749402 L54.7611266,75.5808388 L56.1228765,74.9031861 L56.1228765,73.825118 L57.4426193,73.1683695 L57.4426193,74.2207041 L58.8115576,73.5394743 L58.8115576,68.9197689 C58.8115576,67.4707556 57.490467,68.0715064 56.7828602,68.4236354 C56.6943532,68.4676795 56.5988824,68.5160102 56.4951001,68.5668345 Z M56.1439924,70.3326525 L57.421728,69.6968082 L57.421728,71.4335436 L56.1439924,72.069388 L56.1439924,70.3326525 Z M60.1760031,66.7391995 L61.5849269,66.0380716 L61.5849269,72.1024101 L60.1760031,72.803538 L60.1760031,66.7391995 Z M63.0605678,65.3842284 L63.0605678,71.4485669 L66.4512397,69.7612543 L66.4512397,68.1512698 L64.4477017,69.1482979 L64.4477017,64.6671153 L63.0605678,65.3842284 Z M70.9430826,61.4079663 L70.9430826,63.0447792 L68.6751467,64.1733805 L68.6751467,64.7636078 L69.6437818,64.2815823 C70.1498891,64.0297263 71.2070311,63.4768282 71.2070311,65.4090285 C71.2070311,67.3409551 70.4805549,67.8097882 69.0053632,68.5438933 L67.2219695,69.4313701 L67.2219695,67.9552545 L69.2695364,66.9363162 C69.8859405,66.6295727 69.9200854,66.3678394 69.9200854,66.1548539 C69.9200854,65.9418683 69.6049196,65.9993305 68.9638054,66.3183705 C68.3226912,66.6374106 67.1339118,66.8451753 67.1339118,65.3425049 C67.1339118,63.8398345 67.7503159,62.9694186 68.9833488,62.3558199 C70.2163817,61.7422211 70.9430826,61.4079663 70.9430826,61.4079663 Z M50.5979277,69.6809602 L62.3118524,63.8517164 C62.3118524,63.8517164 59.7137001,57.9532349 60.374133,51.0236724 C61.0347907,44.0939982 65.3062646,38.9627542 67.7283015,37.4355249 C70.1501137,35.9081336 71.471429,37.0754888 71.471429,37.0754888 L72,35.8463539 C72,35.8463539 68.5210457,33.2842158 64.1172606,35.9588747 C59.7134754,38.6332599 56.6750344,43.6872015 54.7815685,48.922837 C52.887878,54.1588581 51.7869317,57.711793 51.038441,62.5922784 C50.2899503,67.4727637 50.5979277,69.6809602 50.5979277,69.6809602 Z M48.2641732,63.6509054 L50.5541235,62.725977 L50.1576391,65.71372 L48,66.4654918 L48.2641732,63.6509054 Z M51.8752141,55.9505623 L52.4918429,53.5508094 L50.4660658,53.5928042 L49.8056328,56.1753266 L51.8752141,55.9505623 Z M54.7375397,47.3347629 L55.9265437,45.0260497 L54.3853087,44.5586349 L53.1522759,46.8356013 L54.7375397,47.3347629 Z M57.8640384,39.1243459 L58.9209558,40.1547156 L60.374133,38.4118084 L59.3172156,37.4887528 L57.8640384,39.1243459 Z M63.0165389,34.7893325 L63.2807121,36.2144721 L65.0863449,35.2622714 L64.9100048,33.9546678 L63.0165389,34.7893325 Z M69.1376744,33.4068905 L69.0936456,34.3946271 L70.3266785,34.5858837 L70.5908517,33.9715091 L69.1376744,33.4068905 Z M68.8732766,37.6708757 L68.8732766,38.4757311 L70.0622806,38.0450137 L70.0622806,37.4008556 L68.8732766,37.6708757 Z M65.0863449,40.2529219 L65.6587201,41.2558572 L66.4954932,40.0345954 L66.3193778,39.2634503 L65.0863449,40.2529219 Z M63.2804875,42.8154927 L64.1612894,43.9871603 L63.6327184,45.3769926 L62.3556566,44.2954768 L63.2804875,42.8154927 Z M61.5193328,48.1459829 L60.9467329,49.8262843 L62.443939,50.6378252 L62.7961699,48.691314 L61.5193328,48.1459829 Z M60.9027041,53.3364484 L60.8146463,55.2585385 L62.6640833,55.3042964 L62.5760256,53.5768877 L60.9027041,53.3364484 Z M61.4310505,59.728365 L61.8715638,61.441351 L64.2053183,60.4409672 L63.3685452,58.7642023 L61.4310505,59.728365 Z" id="Combined-Shape" fill="#F64242"></path>
                        <polygon id="Rectangle-8" fill="#363636" points="23 20 27 18 41 25 37 27"></polygon>
                        <polygon id="Rectangle-8" fill="#363636" points="37 13 41 11 55 18 51 20"></polygon>
                    </g>
                    <path d="M226.5,87.3000488 C224.5,88.5 224.5,88.5 224.5,88.5 C194.5,103.5 201.5,136.5 171.5,151.5 L169.5,152.699951" id="Line" stroke="#83A8C3" stroke-linecap="round" stroke-linejoin="round"></path>
                    <path id="Line-decoration-1" d="M215.695536,90.2839303 L226.5,87.3000488 L218.782418,95.4289432" stroke="#83A8C3" stroke-linecap="round" stroke-linejoin="round"></path>
                    <path id="Line-decoration-2" d="M177.217582,144.571057 L169.5,152.699951 L180.304464,149.71607" stroke="#83A8C3" stroke-linecap="round" stroke-linejoin="round"></path>
                    <text id="Client-Applications" font-family="Stem-Regular, Stem" font-size="13" font-weight="normal" line-spacing="16" fill="#9E9E9E">
                        <tspan x="232.169" y="111">Client</tspan>
                        <tspan x="212.5" y="127">Applications</tspan>
                    </text>
                    <g id="Client" transform="translate(213.000000, 0.000000)">
                        <use id="Rectangle-9" stroke="#363636" mask="url(#mask-4)" stroke-width="4" xlink:href="#path-3"></use>
                        <path d="M40,88.5 L40,40.5" id="Line" stroke="#363636" stroke-width="2" stroke-linecap="square"></path>
                        <polyline id="Line" stroke="#363636" stroke-width="2" points="1 20.5 40 40 79 20.5"></polyline>
                        <path d="M59.9996161,70.60257 C52.8321274,74.1215689 47,69.9032901 47,61.1992355 C47,52.495181 52.8321274,42.5501404 59.9996161,39.0311414 C67.1678726,35.5117654 73,39.7300443 73,48.4340988 C73,57.1381533 67.1678726,67.083194 59.9996161,70.60257 Z M51.8261034,68.51129 C52.3879672,67.7046963 53.1763177,66.8882273 54.0400189,65.9937229 C55.3508078,64.6359424 56.9825748,62.9462115 56.9825748,61.8925874 L56.9825748,60.4585396 C56.5180011,60.2138976 55.7309135,59.5840038 55.6072831,58.1164809 C55.2310169,57.8704414 54.606722,57.2986185 54.606722,56.2114275 C54.606722,55.5512807 54.8217313,54.9133117 55.0106323,54.4821025 C54.8954488,53.830954 54.6789037,52.4556698 54.6789037,51.3684788 C54.6789037,47.7264824 56.7675655,44.347614 59.9996161,42.7607845 C60.9272276,42.305358 62.0537228,42.0543874 62.6810892,42.5622307 C64.146224,42.1561882 65.3210963,43.6856808 65.3210963,46.1435156 C65.3210963,47.7202222 65.0930329,49.1291771 64.9555805,49.8381603 C65.1083907,50.077358 65.2734871,50.4625065 65.2734871,51.0033048 C65.2734871,52.2256953 64.7651437,53.2659594 64.2905874,53.9213328 C64.1562066,55.4940851 63.4489796,56.8128821 63.0174252,57.4853719 L63.0174252,58.9296762 C63.0174252,59.8257229 64.3550902,59.7713112 65.6489855,59.7188083 C66.6170585,59.6791077 67.7486498,59.7763836 68.4471437,60.1141945 C67.9863786,60.7288237 64.9893678,66.2947467 60,68.744361 C55.0106322,71.1939754 52.3879672,68.8887228 51.8261034,68.51129 Z" id="Combined-Shape" fill="#F64242"></path>
                    </g>
                    <text id="WS-Server" font-family="Stem-Regular, Stem" font-size="13" font-weight="normal" line-spacing="14" fill="#9E9E9E">
                        <tspan x="7.5" y="112">WS Server</tspan>
                    </text>
                    <g id="Client">
                        <use id="Rectangle-9" stroke="#E0E0E0" mask="url(#mask-6)" stroke-width="4" xlink:href="#path-5"></use>
                        <path d="M40,88.5 L40,40.5" id="Line" stroke="#E0E0E0" stroke-width="2" stroke-linecap="square"></path>
                        <polyline id="Line" stroke="#E0E0E0" stroke-width="2" points="1 20.5 40 40 79 20.5"></polyline>
                        <path d="M66.7932406,49.1654098 L66.7932406,58.4454098 L70.4254473,56.6405153 L70.4254473,45.4455946 L66.389662,42.2954775 L63.7952286,46.8989736 L66.7932406,49.1654098 Z M52.2644135,67.2853055 L56.3001988,70.5090735 L74,61.7137936 L70.4254473,58.9236899 L57.7992048,65.1978471 L54.8011928,62.7841093 L52.2644135,67.2853055 Z M62.584493,49.0472718 L63.7952286,46.8989736 L57.5685885,42.0387928 L45,48.284301 L48.5745527,51.0744047 L56.0695825,47.3500191 L58.72167,49.3464453 L54.8011928,56.2291887 L52.2067594,54.2041134 L52.2067594,51.6999864 L48.5745527,53.5048809 L48.5745527,57.9239285 L54.8011928,62.7841093 L56.1272366,60.5048621 L58.6640159,62.4849357 L63.7375746,59.9638132 L58.6640159,55.9300151 L59.9900596,53.5771171 L65.0059642,57.5659135 L65.0059642,51.0109929 L62.584493,49.0472718 Z" id="a" fill="#E0E0E0"></path>
                    </g>
                    <circle id="Oval-4" fill="#F64242" cx="81" cy="71" r="15"></circle>
                    <path d="M83.92,67.5 C83.92,69.6 79.44,69.36 79.44,72.16 C79.44,72.46 79.48,72.9 79.58,73.24 L81.76,73.22 C81.74,72.94 81.68,72.84 81.68,72.54 C81.68,70.7 86.4,71.26 86.4,67.1 C86.4,64.9 84.64,63.34 80.92,63.34 C78.16,63.34 76.1,64.84 75.6,67.3 L77.78,67.92 C78.26,66.6 79.24,65.66 80.96,65.66 C83.22,65.66 83.92,66.54 83.92,67.5 Z M78.96,76.04 C78.96,76.82 79.6,77.54 80.58,77.54 C81.5,77.54 82.18,76.82 82.18,76.04 C82.18,75.34 81.5,74.58 80.58,74.58 C79.6,74.58 78.96,75.34 78.96,76.04 Z" id="?" fill="#FFFFFF"></path>
                </g>
            </g>
        </g>
    </g>
</svg>

<svg width="293" height="278" viewBox="0 0 293 278" xmlns="http://www.w3.org/2000/svg" xmlns:xlink="http://www.w3.org/1999/xlink"><title>Illustration</title><defs><path id="a" d="M0 20L40 0l40 20v50L40 90 0 70z"/><mask id="d" x="0" y="0" width="80" height="90" fill="#fff"><use xlink:href="#a"/></mask><path id="b" d="M0 20L40 0l40 20v50L40 90 0 70z"/><mask id="e" x="0" y="0" width="80" height="90" fill="#fff"><use xlink:href="#b"/></mask><path id="c" d="M0 20L40 0l40 20v50L40 90 0 70z"/><mask id="f" x="0" y="0" width="80" height="90" fill="#fff"><use xlink:href="#c"/></mask></defs><g fill="none" fill-rule="evenodd"><text font-family="Stem-Regular, Stem" font-size="13" fill="#9E9E9E"><tspan x="96.5" y="261">Rails Application</tspan> <tspan x="103.858" y="277">+ ActionCable</tspan></text><g transform="translate(106 150)"><use stroke="#363636" mask="url(#d)" stroke-width="4" xlink:href="#a"/><path d="M40 88.5v-48" stroke="#363636" stroke-width="2" stroke-linecap="square"/><path stroke="#363636" stroke-width="2" d="M1 20.5L40 40l39-19.5"/><path d="M49.363 72.09v6.34l1.327-.66v-1.652l1.207.87 2.036-1.012-1.615-1.164s1.162-.601 1.25-2.692c0-1.879-1.164-1.543-2.507-.875l-1.698.845zm1.39 1.028l1.144-.57v1.13l-1.144.57v-1.13zm5.742-4.551c-.726.356-1.734.94-1.734 2.608v4.406l1.362-.678v-1.078l1.32-.657v1.053l1.369-.682v-4.62c0-1.448-1.322-.847-2.03-.495l-.287.143zm-.351 1.766l1.278-.636v1.737l-1.278.635v-1.736zm4.032-3.594l1.409-.7v6.063l-1.409.702v-6.065zm2.885-1.355v6.065l3.39-1.688v-1.61l-2.003.997v-4.48l-1.387.716zm7.882-3.976v1.637l-2.268 1.128v.59l.969-.481c.506-.252 1.563-.805 1.563 1.127s-.726 2.4-2.202 3.135l-1.783.887v-1.476l2.048-1.019c.616-.306.65-.568.65-.781 0-.213-.315-.156-.956.163-.641.32-1.83.527-1.83-.975 0-1.503.616-2.374 1.85-2.987 1.232-.614 1.96-.948 1.96-.948zm-20.345 8.273l11.714-5.83s-2.598-5.898-1.938-12.827c.66-6.93 4.932-12.061 7.354-13.588 2.422-1.528 3.743-.36 3.743-.36l.529-1.23s-3.479-2.562-7.883.113c-4.404 2.674-7.442 7.728-9.335 12.964-1.894 5.236-2.995 8.789-3.744 13.67-.748 4.88-.44 7.088-.44 7.088zm-2.334-6.03l2.29-.925-.396 2.988-2.158.751.264-2.814zm3.611-7.7l.617-2.4-2.026.042-.66 2.582 2.07-.224zm2.863-8.616l1.189-2.309-1.542-.467-1.233 2.277 1.586.499zm3.126-8.21l1.057 1.03 1.453-1.743-1.057-.923-1.453 1.635zm5.153-4.336l.264 1.425 1.805-.952-.176-1.307-1.893.834zm6.12-1.382l-.043.988 1.233.19.264-.613-1.453-.565zm-.264 4.264v.805l1.19-.431v-.644l-1.19.27zm-3.787 2.582l.573 1.003.836-1.221-.176-.772-1.233.99zm-1.806 2.562l.881 1.172-.528 1.39-1.277-1.082.924-1.48zm-1.76 5.331l-.573 1.68 1.497.812.352-1.947-1.277-.545zm-.617 5.19l-.088 1.923 1.85.045-.089-1.727-1.673-.24zm.528 6.392l.44 1.713 2.334-1-.836-1.677-1.938.964z" fill="#F64242"/><path fill="#363636" d="M23 20l4-2 14 7-4 2zM37 13l4-2 14 7-4 2z"/></g><path d="M226.5 87.3l-2 1.2c-30 15-23 48-53 63l-2 1.2" stroke="#83A8C3" stroke-linecap="round" stroke-linejoin="round"/><path d="M215.696 90.284L226.5 87.3l-7.718 8.129M177.218 144.571L169.5 152.7l10.804-2.984" stroke="#83A8C3" stroke-linecap="round" stroke-linejoin="round"/><text font-family="Stem-Regular, Stem" font-size="13" fill="#9E9E9E"><tspan x="232.169" y="111">Client</tspan> <tspan x="212.5" y="127">Applications</tspan></text><g transform="translate(213)"><use stroke="#363636" mask="url(#e)" stroke-width="4" xlink:href="#b"/><path d="M40 88.5v-48" stroke="#363636" stroke-width="2" stroke-linecap="square"/><path stroke="#363636" stroke-width="2" d="M1 20.5L40 40l39-19.5"/><path d="M60 70.603c-7.168 3.519-13-.7-13-9.404s5.832-18.649 13-22.168c7.168-3.52 13 .699 13 9.403s-5.832 18.65-13 22.169zm-8.174-2.092c.562-.806 1.35-1.623 2.214-2.517 1.31-1.358 2.943-3.048 2.943-4.101v-1.434c-.465-.245-1.252-.875-1.376-2.343-.376-.246-1-.817-1-1.905 0-.66.215-1.298.404-1.729-.116-.651-.332-2.026-.332-3.114 0-3.642 2.089-7.02 5.32-8.607.928-.456 2.055-.707 2.682-.199 1.465-.406 2.64 1.124 2.64 3.582 0 1.576-.228 2.985-.365 3.694.152.24.317.625.317 1.165 0 1.223-.508 2.263-.982 2.918-.135 1.573-.842 2.892-1.274 3.564v1.445c0 .896 1.338.841 2.632.789.968-.04 2.1.057 2.798.395-.46.615-3.458 6.18-8.447 8.63-4.99 2.45-7.612.145-8.174-.233z" fill="#F64242"/></g><text font-family="Stem-Regular, Stem" font-size="13" fill="#9E9E9E"><tspan x="7.5" y="112">WS Server</tspan></text><use stroke="#E0E0E0" mask="url(#f)" stroke-width="4" xlink:href="#c"/><path d="M40 88.5v-48" stroke="#E0E0E0" stroke-width="2" stroke-linecap="square"/><path stroke="#E0E0E0" stroke-width="2" d="M1 20.5L40 40l39-19.5"/><path d="M66.793 49.165v9.28l3.632-1.804V45.446l-4.035-3.15-2.595 4.603 2.998 2.266zm-14.529 18.12L56.3 70.51 74 61.714l-3.575-2.79L57.8 65.198l-2.998-2.414-2.537 4.501zm10.32-18.238l1.211-2.148-6.226-4.86L45 48.284l3.575 2.79 7.495-3.724 2.652 1.996-3.92 6.883-2.595-2.025V51.7l-3.632 1.805v4.419l6.226 4.86 1.326-2.28 2.537 1.98 5.074-2.52-5.074-4.034 1.326-2.353 5.016 3.989V51.01l-2.422-1.964z" fill="#E0E0E0"/><circle fill="#F64242" cx="81" cy="71" r="15"/><path d="M83.92 67.5c0 2.1-4.48 1.86-4.48 4.66 0 .3.04.74.14 1.08l2.18-.02c-.02-.28-.08-.38-.08-.68 0-1.84 4.72-1.28 4.72-5.44 0-2.2-1.76-3.76-5.48-3.76-2.76 0-4.82 1.5-5.32 3.96l2.18.62c.48-1.32 1.46-2.26 3.18-2.26 2.26 0 2.96.88 2.96 1.84zm-4.96 8.54c0 .78.64 1.5 1.62 1.5.92 0 1.6-.72 1.6-1.5 0-.7-.68-1.46-1.6-1.46-.98 0-1.62.76-1.62 1.46z" fill="#FFF"/></g></svg>
